X: 1952
T: Vaughan Kyle Schottische
B: australian traditional tunes wiki
M:4/4
L:1/8
R: Schottische
Q: 1/4=100
K:G
V:1 
B|:\\
"G"d>B"D"c2"G"B>A G>A B>d|\\
"C"e2e>f|\\
"G"g2f>e d>B G>A|(3BcB "D"(3ABA "G"G2z2:|
|:"G"g2(3gag "D"f2 (3fgf|"C"e>f g>e "G"d2ze/f/|g>a g>e d>B G>A|(3BcB "D"(3ABA "G"G2z2:|
% abcbook-tune_id 6342d5be556d5dd025dba6f1


% abcbook-boost 0
% abcbook-tablature 
% abcbook-transpose 
% abcbook-lastupdated 1665324490012
% abcbook-soundfonts 
% abcbook-repeats 1
% NFF Book 2014

